X:357
T:Highland Strathspey,The. RH.357
T:Miss Lyall,aka. RH.357
R:strathspey
S:Rev.R.Harrison’s MS,c1815,Cumbria
O:England
A:Temple Sowerby,Cumbria
Z:vmp.Simon Wilson. Review PJH, 2008.
M:C
L:1/8
Q:2/4=70
K:G
gf|e>EE>F G>AB>c|d<df>e d2dg/f/|\
eEE>F G>AB>c|ge g/f/e/^d/ e2eg/b/|!
eEEF G>AB>c|d>df>e d2dg/a/|\
b>ga>f gefd|Be g/f/e/^d/ e2e||!
f|e<e’e’>f’ d'<d’ e’/d’/^c’/d’/|b<e’e’>f’ d’2^c’d’|\
b<e’e’>f’ d’d’ e’/d’/^c’/d’/|b>ga>f e2eg/f/|!
e<e’e’>f’ d'<d’ e’/d’/^c’/d’/|e<e’e’>f’d’2^c’d’|\
((3e’d’c’) ((3d’e’f’) ((3bag) ((3fga)|b>ga>fe2e|]

